X: 1
T: the Merry Lads of Ayr
C: John Riddell
B: RSCDS 1-12
R: reel
Z: 1997 by John Chambers <jc:trillian.mit.edu>
M: C|
L: 1/8
K: C
|: f \
| "C"edcB cGGf | edce "F"f2"G"gf | "C"edcB cGGc | "F"A/B/c "C"GE "G7"D2 D :|
|: d \
| "C"c2ga "(G)"gede | "C"ccga "(G)"g2ed | "C"cega gece | "F"fa"C"ge "G"d3 :|
